X: 3
T: The Foggy Dew
R: barndance
M: 4/4
L: 1/8
K: Edor
e2| d2 e2 | B2 AG | A2 B2 | E2 EF |
G2 A2 | E2 E2 | E4 -| E2 :|
E2|| G2 A2 | B2 AG | A2 Bc |d2 A2 |
B2 BA | Bc d2 | e4- | e2 ge |
d2 e2 |B2 AG | A2 B2 | E2 EF |
G2 A2 | E2 E2 | E4 -| E2 ||


Tune 2516	Setting 15808

